X:37
T:Whinham's Reel
C:Robert Whinham
N:Robert Whinham who died in the workhouse in about 1890
N:his father, also Robert, invented the gooseberry or at least a version
N:of it called Winham's Industry, The Morpeth Chronicle or some such reported
N:"After many fruitless efforts, Mr Winham achieved his gooseberry."
Q:1/4=100
I:abc2nwc
M:2/4
L:1/16
K:G
D2|GABA G2D2|E2G2 D4|E2G2D2G2|B2A2A2D2|
GABA G2D2|E2G2 D4|E2G2D2dc|B2G2 G2:|
|: (3def|g2G2B2g2|f2G2c2e2|d2D2G2B2|cBAB cdef|
g2G2B2g2|f2G2c2e2|d2D2F2dc|B2G2G2:|



